X: 10301
T: When ruddy Aurora awakens the day
Q: "Allegro"
O: Shield
B: "Man of Feeling", Gaetano Brandi, ed. v.1 p.30-32
N: There's an illegible smudge at the top of the page that may be a hand-written title.
F: http://archive.org/details/manoffeelingorge00rugg
Z: 2012 John Chambers <jc:trillian.mit.edu>
M: 3/4
L: 1/8
K: C
%%continueall
%%graceslurs 0
G2 | c2 (ed) (cB) | c2 (GF) (ED) | C2 E2 G2 |
w: When rud-dy* Au-*ro-ra* a-*wa-kens the
c4 (e>c) | d2 d2 (e>c) | d2 G2 (e>c) (d>e) (f>d) (e>c) |
w: day And* dew drops im-*pearl the sweet* flo-*wers* so*
d4 d2 | d2 (B>d) (c>B) | c2 (A>c) (B>A) | (BA) (GA) (Bc) |
w: gay Sound sound my* stout* Ar-chers* sound* horns* and* a-
d4 e2 | d2 (cB) (cd) | (e^f) g2 f2 | g6 | e6 |
w: \-way with ar-rows* sharp* point-*ed we to with
d2 (cB) (AG) | (Bc) d2 D2 | G2 z2 G2 | (Bc) d2 (cB) |
w: ar-rows* sharp* point-*ed we go  See Sol* now a-*
(cd) e2 (dc) | (de) =f2 (ed) | e4 e> d | c2 A2 e> d |
w: ri-*ses in* splen-*dor, how* bright, I O Pae-an, I O
c2 A2 e2 | (fe) (dc) (BA) | (^GF) E2 e2 | (fd) (cB) (A^G) |
w: Pae-an for Phoe-*bus* for* Phoe-*bus who leads* to* de-*
A4 B2 | c2 G2 F2 | E2 G2 c2 | (de) (fe) (dc) |
w: light all glo-rious il-lu-min'd now 'ri-*ses* to*
{c2}B4 g2 | g4 e> c | d2 G2 B2 | c2 z2 G2 |
w: fight 'tis he Boys is God of the Bow, is
c2 (GF) (ED) | C4 (c>d) | e2 c2 G2 | {F2}E4 e> f |
w: God of* the* Bow, is* God of the Bow, of the
g>agfeg | f>gfedf | egfedc | BdcBAG |
w: Bow. - - - - - - - - - - - - - - - - - - - - - -
c>Bcedf | e>degfa | g2 fedc | G4 G2 |
w: - - - - - - - - - - - - - - - - -, See
c2 c2 _B2 | A2 f2 A2 | d2 d2 c2 | B2 z2 g2 | g4 e c |
w: Sol now a-ri-ses in Splen-dor how bright, 'Tis he boys is
d2 G2 B2 | c2 zgag | fedcBA | GABcde | f2 d2 g2 | c2 z2 |]
w: God of the Bow.
%
W: Fresh roses we'll offer at Venus's Shrine
W: Libations we'll pour to great Bacchus divine
W: While mirth love and pleasure in junction combine
W:  \t For Archers true sons of the same
W:  \t For Archers true sons of the same
W: Bid sorrow adieu in soft numbers we'll sing
W: Love and friendship Love and friendship
W: Love friendship and Beauty shall make the air ring
W: Wishing health and success to our Country and King
W:  \t Encrese to their honor and fame
W:  \t  \t To their honor and fame
W:  \t  \t To their honor and fame
W:  \t  \t To their ho - - nor and fame
W: Wishing health and success to our Country and King
W:  \t Encrese to their honor and fame
%
%%center -

% Continuation of previous page.

% Continuation of previous page.

%%sep 2 1 500
%%sep 1 1 500

